synths/sAPT.svg

<svg width="42" height="42" viewBox="0 0 42 42" fill="none" xmlns="http://www.w3.org/2000/svg">
<g clip-path="url(#clip0_7277_58024)">
<mask id="mask0_7277_58024" style="mask-type:alpha" maskUnits="userSpaceOnUse" x="0" y="0" width="42" height="42">
<circle cx="21" cy="21" r="21" fill="url(#paint0_linear_7277_58024)"/>
</mask>
<g mask="url(#mask0_7277_58024)">
<circle cx="21" cy="21" r="21" fill="#34EDB3"/>
<circle cx="21" cy="21" r="18.2" fill="white"/>
</g>
<circle cx="21" cy="21" r="16.1" fill="#06061B"/>
<g clip-path="url(#clip1_7277_58024)">
<ellipse cx="20.9" cy="20.9" rx="21" ry="21" fill="white"/>
<path d="M29.8429 15.6714H26.9938C26.6646 15.6714 26.3488 15.5309 26.127 15.2834L24.9713 13.9855C24.7966 13.7915 24.5547 13.6777 24.2926 13.6777C24.0305 13.6777 23.7886 13.7915 23.6139 13.9855L22.6194 15.1028C22.2969 15.464 21.8265 15.6781 21.3427 15.6781H5.74669C5.3032 16.9292 5.01426 18.2605 4.90002 19.6454H19.6225C19.8846 19.6454 20.1265 19.5384 20.3079 19.351L21.6787 17.926C21.8467 17.7454 22.0886 17.645 22.3305 17.645H22.3842C22.6463 17.645 22.8882 17.7588 23.0629 17.9528L24.2187 19.2507C24.4404 19.4982 24.7562 19.6387 25.0855 19.6387H37.1C36.9858 18.2605 36.6969 16.9225 36.2534 15.6647L29.8429 15.6714Z" fill="black"/>
<path d="M13.8103 27.9948C14.0723 27.9948 14.3142 27.8877 14.4957 27.7004L15.8664 26.2754C16.0411 26.0948 16.2763 25.9944 16.5249 25.9944H16.5787C16.8408 25.9944 17.0894 26.1081 17.2574 26.2955L18.4131 27.5934C18.6349 27.8409 18.9507 27.9814 19.28 27.9814H35.5681C36.1796 26.7236 36.6231 25.3789 36.8919 23.9673H21.2555C20.9262 23.9673 20.6104 23.8268 20.3887 23.5792L19.2329 22.2947C19.0582 22.1007 18.8163 21.9937 18.5542 21.9937C18.2922 21.9937 18.0436 22.1074 17.8756 22.2947L16.8811 23.412C16.5585 23.7799 16.0882 23.9873 15.5977 23.9873H5.1219C5.39068 25.399 5.83417 26.7437 6.44565 28.0015L13.8103 27.9948Z" fill="black"/>
<path d="M25.361 11.3293C25.623 11.3293 25.8649 11.2223 26.0464 11.035L27.4171 9.60995C27.5851 9.42931 27.827 9.32896 28.0757 9.32896H28.1294C28.3915 9.32896 28.6334 9.44269 28.8081 9.63671L29.9639 10.9413C30.1856 11.1888 30.5014 11.3293 30.8307 11.3293H33.9284C30.9785 7.42224 26.2883 4.90002 21.0067 4.90002C15.7252 4.90002 11.0282 7.42224 8.07833 11.3293H25.361Z" fill="black"/>
<path d="M19.1451 31.9753H14.9118C14.5826 31.9753 14.2667 31.8348 14.045 31.5872L12.8892 30.2893C12.7145 30.0953 12.4726 29.9883 12.2106 29.9883C11.9485 29.9883 11.6999 30.102 11.5319 30.2893L10.5374 31.4066C10.2149 31.7746 9.7445 31.982 9.25398 31.982H9.18678C12.1367 35.1264 16.3364 37.1 21.0064 37.1C25.6765 37.1 29.8695 35.1264 32.8261 31.982L19.1451 31.9753Z" fill="black"/>
</g>
</g>
<defs>
<linearGradient id="paint0_linear_7277_58024" x1="21" y1="0" x2="21" y2="61.4091" gradientUnits="userSpaceOnUse">
<stop stop-color="#08021E"/>
<stop offset="1" stop-color="#1F0777"/>
</linearGradient>
<clipPath id="clip0_7277_58024">
<rect width="42" height="42" fill="white"/>
</clipPath>
<clipPath id="clip1_7277_58024">
<rect x="4.90002" y="4.90002" width="32.2" height="32.2" rx="16.1" fill="white"/>
</clipPath>
</defs>
</svg>

<svg xmlns="http://www.w3.org/2000/svg" width="42" height="42" fill="none"><g clip-path="url(#a)"><mask id="c" width="42" height="42" x="0" y="0" maskUnits="userSpaceOnUse" style="mask-type:alpha"><circle cx="21" cy="21" r="21" fill="url(#b)"/></mask><g mask="url(#c)"><circle cx="21" cy="21" r="21" fill="#34EDB3"/><circle cx="21" cy="21" r="18.2" fill="#fff"/></g><circle cx="21" cy="21" r="16.1" fill="#06061B"/><g clip-path="url(#d)"><circle cx="20.9" cy="20.9" r="21" fill="#fff"/><path fill="#000" d="M29.843 15.671h-2.85c-.328 0-.644-.14-.866-.388l-1.156-1.297a.91.91 0 0 0-.678-.308.91.91 0 0 0-.68.307l-.994 1.118a1.727 1.727 0 0 1-1.276.575H5.747a15.74 15.74 0 0 0-.847 3.967h14.722a.947.947 0 0 0 .686-.294l1.37-1.425a.897.897 0 0 1 .652-.281h.054a.91.91 0 0 1 .679.308l1.156 1.298c.221.247.537.388.866.388H37.1a15.916 15.916 0 0 0-.847-3.974l-6.41.006ZM13.81 27.995a.948.948 0 0 0 .686-.295l1.37-1.425a.912.912 0 0 1 .659-.28h.054c.262 0 .51.113.678.3l1.156 1.298c.222.248.538.388.867.388h16.288a16.008 16.008 0 0 0 1.324-4.014H21.255c-.329 0-.645-.14-.866-.388l-1.156-1.284a.917.917 0 0 0-1.357 0l-.995 1.117a1.706 1.706 0 0 1-1.283.575H5.122a16.007 16.007 0 0 0 1.324 4.015l7.364-.007ZM25.361 11.33a.948.948 0 0 0 .685-.295l1.371-1.425a.901.901 0 0 1 .659-.281h.053a.91.91 0 0 1 .68.308l1.155 1.304c.222.248.537.388.867.388h3.097A16.151 16.151 0 0 0 21.007 4.9a16.164 16.164 0 0 0-12.929 6.43h17.283ZM19.145 31.975h-4.233c-.33 0-.645-.14-.867-.388l-1.156-1.298a.917.917 0 0 0-1.357 0l-.995 1.118a1.706 1.706 0 0 1-1.283.575h-.067a16.158 16.158 0 0 0 11.82 5.118c4.67 0 8.862-1.974 11.82-5.118l-13.682-.007Z"/></g></g><defs><clipPath id="a"><path fill="#fff" d="M0 0h42v42H0z"/></clipPath><clipPath id="d"><rect width="32.2" height="32.2" x="4.9" y="4.9" fill="#fff" rx="16.1"/></clipPath><linearGradient id="b" x1="21" x2="21" y1="0" y2="61.409" gradientUnits="userSpaceOnUse"><stop stop-color="#08021E"/><stop offset="1" stop-color="#1F0777"/></linearGradient></defs></svg>
